X: 33273
T: Purgatory Chasm
R: reel
M: 4/4
K: Gmajor
|EEED EzED|EFGA BAGE|D3E Dz(D2|D)EFG AGFD|
EEED EzED|EFGA BAGF|GABc dcBA|GBFB Eeed|
ez ED EE(E2|E)FGA BAGE|D3E Dz(D2|D)EFG AGFD|
EEED EzED|EFGA BAGF|GABc dcBA|GBFB Eeez|
|:(edc) (dcB) (cB|A) (BAG) (AGE) D|EEEF GzGB|^d3B ^dB^df|
(e^dc) (^dcB) (cB|A) (BAG) (AGE) D|EzEF GFGB|AGED Ez[eE][eE]:|

